svg/u2650.svg

<svg viewBox="0 0 128 128" xmlns="http://www.w3.org/2000/svg">
  <circle cx="64" cy="64" r="60" fill="#0D47A1"/>
  <circle cx="60.1" cy="63.1" r="56.1" fill="#1976D2"/>
  <path d="M24,29.7c4.5-7.1,14.1-13,24.1-14.8c2.5-0.4,5-0.6,7.1,0.2 c1.6,0.6,2.9,2.1,2,3.8c-0.7,1.4-2.6,2-4.1,2.5c-9.3,3-17.9,6.4-23.1,14.3c-2,3-4.9,14.4-8.6,12.3C17.5,45.7,18.3,38.5,24,29.7z" opacity="0.3" fill="#FFFFFF" enable-background="new "/>
  <path d="M92,34H64.2c-2.1,0-4,1.5-4.2,3.6C59.8,40,61.7,42,64,42h15.8c0.9,0,1.3,1.1,0.7,1.7L59,64.8 c-0.8,0.8-2,0.8-2.8,0l-9.7-9.6c-1.6-1.6-4.1-1.6-5.7,0c-1.6,1.6-1.6,4.1,0,5.7l9.7,9.6c0.8,0.8,0.8,2.1,0,2.8L33.3,91 c-1.5,1.5-1.8,4.1-0.3,5.7c1.5,1.7,4.2,1.8,5.8,0.2l17.5-18c0.8-0.8,2-0.8,2.8,0l10.1,10c1.6,1.6,4.1,1.6,5.7,0s1.6-4.1,0-5.7 l-10.1-10c-0.8-0.8-0.8-2.1,0-2.8l21.6-21.1c0.6-0.6,1.7-0.2,1.7,0.7v15.9c0,2.1,1.5,3.9,3.6,4.2c2.4,0.2,4.4-1.6,4.4-4V38 C96,35.8,94.2,34,92,34L92,34z" fill="#FAFAFA"/>
</svg>

<svg viewBox="0 0 128 128" xmlns="http://www.w3.org/2000/svg">
  <defs/>
  <path d="M124,64 A60 60 0 1 1 4,64 A60 60 0 1 1 124,64 Z" fill="#0D47A1"/>
  <path d="M116.2,63.1 A56.1 56.1 0 1 1 4,63.1 A56.1 56.1 0 1 1 116.2,63.1 Z" fill="#1976D2"/>
  <path d="M24,29.7 C28.5,22.6 38.1,16.7 48.1,14.9 C50.6,14.5 53.1,14.3 55.2,15.1 C56.8,15.7 58.1,17.2 57.2,18.9 C56.5,20.3 54.6,20.9 53.1,21.4 C43.8,24.4 35.2,27.8 30,35.7 C28,38.7 25.1,50.1 21.4,48 C17.5,45.7 18.3,38.5 24,29.7 Z" fill="#FFFFFF" opacity="0.3"/>
  <path d="M92,34 L64.2,34 C62.1,34 60.2,35.5 60,37.6 C59.8,40 61.7,42 64,42 L79.8,42 C80.7,42 81.1,43.1 80.5,43.7 L59,64.8 C58.2,65.6 57,65.6 56.2,64.8 L46.5,55.2 C44.9,53.6 42.4,53.6 40.8,55.2 C39.2,56.8 39.2,59.3 40.8,60.9 L50.5,70.5 C51.3,71.3 51.3,72.6 50.5,73.3 L33.3,91 C31.8,92.5 31.5,95.1 33,96.7 C34.5,98.4 37.2,98.5 38.8,96.9 L56.3,78.9 C57.1,78.1 58.3,78.1 59.1,78.9 L69.2,88.9 C70.8,90.5 73.3,90.5 74.9,88.9 C76.5,87.3 76.5,84.8 74.9,83.2 L64.8,73.2 C64,72.4 64,71.1 64.8,70.4 L86.4,49.3 C87,48.7 88.1,49.1 88.1,50 L88.1,65.9 C88.1,68 89.6,69.8 91.7,70.1 C94.1,70.3 96.1,68.5 96.1,66.1 L96.1,38 C96,35.8 94.2,34 92,34 L92,34 Z" fill="#FAFAFA"/>
</svg>
